X: 121205
T: Lad O'Beirne's [b]
C: Lad O'Beirne
R: reel
N: B/C
D: Josephine Marsh, 11a
Z: Jeff Lindqvist
M: C|
L: 1/8
K: F
d2cA dAcA|GcAF GAFD|C~F3 CFAc|d^cde fagf|
dAcA dAcA|GcAF GAFD|C~F3 DFBd|cbag f3e|
~d2cA dAcA|GcAF GAFD|C~F3 CFAc|d^cde fagf|
d~A3 dAcA|GcAF GAFD|C~F3 DFBd|cbag f3g||
a2gf afgf|dgfd cFAd|(3cdc =Bd cdfa|g^fga ~g2=fg|
a~f3 afgf|dgfd cFAd|(3cdc =Bd cdfa|g^fga e=f2g|
a2gf aagf|dgfd cFAd|(3cdc =Bd cdfa|~g3a bagf|
fa{b}ag f3c|defd cAGF|C~F3 DFBd|cbag f3e||
